X:37
T:Complaining maid
%%VWML:SBG-1-2--0
F:http://www.vwml.org/record/SBG/1/2/
Z:Original Sibelius transcriptions by M. & S. Graebe
M:4/4
I:linebreak $
K:F
V:1 treble nm="P1"
V:1
 C2 | EEGE E D2 G | BBAG ED C | A | ccdc AG F2 |$ B c d2 z2 e2 | cA G2 c2 G F | ED C2 c2 cc | %8
 AGFE F2 BA | G6 x2 | %10

